src/assets/outline/CubeScan3d.svg

<svg width="24" height="24" viewBox="0 0 24 24"  xmlns="http://www.w3.org/2000/svg">
<path d="M22 9.75C21.59 9.75 21.25 9.41 21.25 9V7C21.25 4.42 19.58 2.75 17 2.75H7C4.42 2.75 2.75 4.42 2.75 7V9C2.75 9.41 2.41 9.75 2 9.75C1.59 9.75 1.25 9.41 1.25 9V7C1.25 3.56 3.56 1.25 7 1.25H17C20.44 1.25 22.75 3.56 22.75 7V9C22.75 9.41 22.41 9.75 22 9.75Z" />
<path d="M17 22.75H7C3.56 22.75 1.25 20.44 1.25 17V15C1.25 14.59 1.59 14.25 2 14.25C2.41 14.25 2.75 14.59 2.75 15V17C2.75 19.58 4.42 21.25 7 21.25H17C19.58 21.25 21.25 19.58 21.25 17V15C21.25 14.59 21.59 14.25 22 14.25C22.41 14.25 22.75 14.59 22.75 15V17C22.75 20.44 20.44 22.75 17 22.75Z" />
<path d="M12.0001 13.08C11.8701 13.08 11.7401 13.0499 11.6201 12.9799L6.32011 9.91992C5.96011 9.70992 5.84011 9.24995 6.05011 8.88995C6.26011 8.52995 6.72011 8.40993 7.07011 8.61993L11.9901 11.4699L16.8801 8.63995C17.2401 8.42995 17.7001 8.55991 17.9001 8.90991C18.1101 9.26991 17.9801 9.72994 17.6301 9.93994L12.3701 12.9799C12.2601 13.0399 12.1301 13.08 12.0001 13.08Z" />
<path d="M12 18.5201C11.59 18.5201 11.25 18.1801 11.25 17.7701V12.3301C11.25 11.9201 11.59 11.5801 12 11.5801C12.41 11.5801 12.75 11.9201 12.75 12.3301V17.7701C12.75 18.1801 12.41 18.5201 12 18.5201Z" />
<path d="M12.0002 18.7498C11.4202 18.7498 10.8502 18.6198 10.3902 18.3698L7.19023 16.5898C6.23023 16.0598 5.49023 14.7898 5.49023 13.6898V10.2998C5.49023 9.2098 6.24023 7.93983 7.19023 7.39983L10.3902 5.6198C11.3102 5.1098 12.6902 5.1098 13.6102 5.6198L16.8102 7.39983C17.7702 7.92983 18.5102 9.1998 18.5102 10.2998V13.6898C18.5102 14.7798 17.7602 16.0498 16.8102 16.5898L13.6102 18.3698C13.1502 18.6198 12.5802 18.7498 12.0002 18.7498ZM11.1202 6.93981L7.92023 8.71978C7.43023 8.98978 6.99023 9.7498 6.99023 10.2998V13.6898C6.99023 14.2498 7.43023 14.9998 7.92023 15.2698L11.1202 17.0498C11.5802 17.2998 12.4202 17.2998 12.8802 17.0498L16.0802 15.2698C16.5702 14.9998 17.0102 14.2398 17.0102 13.6898V10.2998C17.0102 9.7398 16.5702 8.98978 16.0802 8.71978L12.8802 6.93981C12.4202 6.68981 11.5802 6.68981 11.1202 6.93981Z" />
</svg>

<?xml version="1.0" encoding="UTF-8"?>
<svg width="24" height="24" viewBox="0 0 24 24" xmlns="http://www.w3.org/2000/svg">
 <path d="m22 9.75c-0.41 0-0.75-0.34-0.75-0.75v-2c0-2.58-1.67-4.25-4.25-4.25h-10c-2.58 0-4.25 1.67-4.25 4.25v2c0 0.41-0.34 0.75-0.75 0.75s-0.75-0.34-0.75-0.75v-2c0-3.44 2.31-5.75 5.75-5.75h10c3.44 0 5.75 2.31 5.75 5.75v2c0 0.41-0.34 0.75-0.75 0.75z"/>
 <path d="m17 22.75h-10c-3.44 0-5.75-2.31-5.75-5.75v-2c0-0.41 0.34-0.75 0.75-0.75s0.75 0.34 0.75 0.75v2c0 2.58 1.67 4.25 4.25 4.25h10c2.58 0 4.25-1.67 4.25-4.25v-2c0-0.41 0.34-0.75 0.75-0.75s0.75 0.34 0.75 0.75v2c0 3.44-2.31 5.75-5.75 5.75z"/>
 <path d="m12 13.08c-0.13 0-0.26-0.0301-0.38-0.1001l-5.3-3.06c-0.36-0.21-0.48-0.66997-0.27-1.03s0.67-0.48002 1.02-0.27002l4.92 2.85 4.89-2.83c0.36-0.21 0.82-0.08004 1.02 0.26996 0.21 0.36 0.08 0.82003-0.27 1.03l-5.26 3.04c-0.11 0.06-0.24 0.1001-0.37 0.1001z"/>
 <path d="m12 18.52c-0.41 0-0.75-0.34-0.75-0.75v-5.44c0-0.41 0.34-0.75 0.75-0.75s0.75 0.34 0.75 0.75v5.44c0 0.41-0.34 0.75-0.75 0.75z"/>
 <path d="m12 18.75c-0.58 0-1.15-0.13-1.61-0.38l-3.2-1.78c-0.96-0.53-1.7-1.8-1.7-2.9v-3.39c0-1.09 0.75-2.36 1.7-2.9l3.2-1.78c0.92-0.51 2.3-0.51 3.22 0l3.2 1.78c0.96 0.53 1.7 1.8 1.7 2.9v3.39c0 1.09-0.75 2.36-1.7 2.9l-3.2 1.78c-0.46 0.25-1.03 0.38-1.61 0.38zm-0.88-11.81-3.2 1.78c-0.49 0.27-0.93 1.03-0.93 1.58v3.39c0 0.56 0.44 1.31 0.93 1.58l3.2 1.78c0.46 0.25 1.3 0.25 1.76 0l3.2-1.78c0.49-0.27 0.93-1.03 0.93-1.58v-3.39c0-0.56-0.44-1.31-0.93-1.58l-3.2-1.78c-0.46-0.25-1.3-0.25-1.76 0z"/>
</svg>
